X: 12543
T: Farewell To Liberty
R: jig
M: 6/8
K: Eminor
|:E/F/|"G"GFG "Am"AGA|"G"Bcd "C"e2d|"G"Bcd "Am"eBA|"C"GFE "G"DEF|
"G"GFG "Am"AGA|"G"Bcd "C"e2d|"G"Bcd "Am"eBA|"Em"GEE "Em"E3:|
|:e/f/|"G"g2e "D"f2e|"G"dBA "Em"B2A|"G"GBd "C"gfe|"Bm"dBd "Em"e2f|
"G"gfe "D"fed|"Em"edB "Am"cBA|"G"GAB "Am"cBA|Em"GEE E2:|

